autogermania/dist/img/svg/fabric.svg

<svg xmlns="http://www.w3.org/2000/svg" width="25" height="25"><path fill-rule="evenodd" d="M24.999 14.285v3.571h-3.566v-3.571h3.566zm-.031 7.142v3.572h-3.567v-3.572h-3.535v-3.571h3.567v3.571h3.535zm-10.669-7.142h3.536v-3.571h3.566v3.571h-3.535v3.571h-3.567v-3.571zm3.567-7.143V3.57h3.567v3.572h3.535v3.572h-3.567V7.142h-3.535zm-.031 0v3.572h-3.568V7.142h-3.535V3.57h3.567v3.572h3.536zm-7.134 0v3.572H7.134V7.142H3.598V3.57h3.567v3.572h3.536zm-7.103 7.143v3.571H.031v-3.571h3.536v-3.571h3.567v3.571H3.598zm7.103 0v-3.571h3.566v3.571h-3.535v3.571H7.165v-3.571h3.536zm3.598 7.142h3.536v3.572h-3.568v-3.572h-3.535v-3.571h3.567v3.571zm-7.134 0h3.536v3.572H7.134v-3.572H3.598v-3.571h3.567v3.571zM-.001 7.142h3.568v3.572H-.001V7.142zM.031-.001h3.567V3.57H.031V-.001zm7.134 0h3.567V3.57H7.165V-.001zm7.134 0h3.567V3.57h-3.567V-.001zm10.7 0V3.57h-3.566V-.001h3.566zm-21.432 25H-.001v-3.572h3.568v3.572z"/></svg>

<svg 
 xmlns="http://www.w3.org/2000/svg"
 xmlns:xlink="http://www.w3.org/1999/xlink"
 width="25px" height="25px">
<path fill-rule="evenodd"  fill="rgb(0, 0, 0)"
 d="M24.999,14.285 L24.999,17.856 L21.433,17.856 L21.433,14.285 L24.999,14.285 ZM24.968,21.427 L24.968,24.999 L21.401,24.999 L21.401,21.427 L17.866,21.427 L17.866,17.856 L21.433,17.856 L21.433,21.427 L24.968,21.427 ZM14.299,14.285 L17.835,14.285 L17.835,10.714 L21.401,10.714 L21.401,14.285 L17.866,14.285 L17.866,17.856 L14.299,17.856 L14.299,14.285 ZM17.866,7.142 L17.866,3.570 L21.433,3.570 L21.433,7.142 L24.968,7.142 L24.968,10.714 L21.401,10.714 L21.401,7.142 L17.866,7.142 ZM17.835,7.142 L17.835,10.714 L14.267,10.714 L14.267,7.142 L10.732,7.142 L10.732,3.570 L14.299,3.570 L14.299,7.142 L17.835,7.142 ZM10.701,7.142 L10.701,10.714 L7.134,10.714 L7.134,7.142 L3.598,7.142 L3.598,3.570 L7.165,3.570 L7.165,7.142 L10.701,7.142 ZM3.598,14.285 L3.598,17.856 L0.031,17.856 L0.031,14.285 L3.567,14.285 L3.567,10.714 L7.134,10.714 L7.134,14.285 L3.598,14.285 ZM10.701,14.285 L10.701,10.714 L14.267,10.714 L14.267,14.285 L10.732,14.285 L10.732,17.856 L7.165,17.856 L7.165,14.285 L10.701,14.285 ZM14.299,21.427 L17.835,21.427 L17.835,24.999 L14.267,24.999 L14.267,21.427 L10.732,21.427 L10.732,17.856 L14.299,17.856 L14.299,21.427 ZM7.165,21.427 L10.701,21.427 L10.701,24.999 L7.134,24.999 L7.134,21.427 L3.598,21.427 L3.598,17.856 L7.165,17.856 L7.165,21.427 ZM-0.001,7.142 L3.567,7.142 L3.567,10.714 L-0.001,10.714 L-0.001,7.142 ZM0.031,-0.001 L3.598,-0.001 L3.598,3.570 L0.031,3.570 L0.031,-0.001 ZM7.165,-0.001 L10.732,-0.001 L10.732,3.570 L7.165,3.570 L7.165,-0.001 ZM14.299,-0.001 L17.866,-0.001 L17.866,3.570 L14.299,3.570 L14.299,-0.001 ZM24.999,-0.001 L24.999,3.570 L21.433,3.570 L21.433,-0.001 L24.999,-0.001 ZM3.567,24.999 L-0.001,24.999 L-0.001,21.427 L3.567,21.427 L3.567,24.999 Z"/>
</svg>
